X: 488
T: A Winston Tune
R: jig
M: 6/8
K: Gmajor
|:dB|GFG ABd|gba g2 e|ded B2 G|F2 A cBA|
G3 AB/c/d|g/a/ba gfe|dcd faf|g3 g:|
|:dc|B3 B2 d|c3 c2 e|ded B2 G|F2 A cc/B/A|
BGB B/c/dB|cAc c/d/ec|dcd f/g/af|g3- g:|

